<?xml version="1.0" encoding="UTF-8"?>
<map version="1.10" tiledversion="1.11.2" orientation="orthogonal" renderorder="right-down" width="40" height="30" tilewidth="32" tileheight="32" infinite="0" nextlayerid="2" nextobjectid="1">
 <tileset firstgid="1" source="pokemon.tsx"/>
 <tileset firstgid="1025" source="poke2.tsx"/>
 <tileset firstgid="2561" source="poke3.tsx"/>
 <layer id="1" name="Calque de Tuiles 1" width="40" height="30">
  <data encoding="csv">
3820,3821,2737,2738,2739,2740,2741,2742,2743,2744,2745,2746,2747,2748,2749,2750,918,919,1,495,3649,3650,3651,495,9,10,11,12,13,14,15,1,2,3,4,5,6,7,8,1,
3868,3869,2785,2786,2787,2788,2789,2790,2791,2792,2793,2794,2795,2796,2797,2798,950,951,1,3696,3697,3698,3699,3700,41,42,43,44,45,46,47,33,34,35,36,37,38,39,40,1,
895,896,2833,2834,2835,2836,2837,2838,2839,2840,2841,2842,2843,2844,2845,2846,982,983,1,3744,3745,3746,3747,3748,73,74,75,76,77,78,79,65,66,67,68,69,70,71,72,1,
927,928,2881,2882,2883,2884,2885,2886,2887,2888,2889,2890,2891,2892,2893,2894,1014,1015,1,3792,3793,3794,3795,3796,105,106,107,108,109,110,111,97,98,99,100,101,102,103,104,1,
895,896,2929,2930,2931,2932,2933,2934,2935,2936,2937,2938,2939,2940,2941,2942,2875,2876,2875,2876,3841,3842,3843,3844,137,138,139,140,141,142,143,129,130,131,132,133,134,135,136,1,
927,928,2977,2978,2979,2980,2981,2982,2983,2984,2985,2986,2987,2988,2989,2990,2923,2924,2923,2924,558,1,1,1,169,170,171,172,173,174,175,161,162,163,164,165,166,167,168,1,
895,896,3025,3026,3027,3028,3029,3030,3031,3032,3033,3034,3035,3036,3037,3038,2875,2876,2877,2878,2879,1,895,896,201,202,203,204,205,206,207,193,194,195,196,197,198,199,200,1,
927,928,3073,3074,3075,3076,3077,3078,3079,3080,3081,3082,3083,3084,3085,3086,2923,2924,2925,2926,2927,1,927,928,233,234,235,236,237,238,239,225,226,227,228,229,230,231,232,1,
3758096712,573,259,260,261,262,263,264,265,266,267,268,269,257,258,259,260,261,262,263,264,265,266,267,268,269,270,271,272,273,274,275,276,277,278,279,280,284,285,1610613064,
3758096711,605,3221226300,292,293,294,295,296,297,298,299,300,301,289,290,291,292,293,294,295,296,297,298,299,300,301,302,303,304,305,306,307,308,309,310,311,312,316,317,1610613063,
3758096710,605,3221226268,324,325,326,327,328,329,330,331,332,333,321,322,1073742699,688,689,690,691,692,329,330,331,332,333,334,335,336,191,192,191,192,191,192,191,192,348,349,1610613062,
3758096709,605,3221226236,1,1,1,1,1,1,1,3820,3821,1,1,1,1073742667,536871660,536871692,536871724,723,724,1,1,1,1,1,1,1,1,223,224,223,224,223,224,223,224,380,381,1610613061,
3758096711,605,3221226204,1073,1074,1075,1076,1077,1078,1079,3868,3869,1,1,1,1073742635,1073742636,751,752,755,756,48,49,50,51,52,53,54,55,495,469,470,471,472,473,474,475,412,413,1610613063,
3758096710,605,3221226172,1105,1106,1107,1108,1109,1110,1111,1,1,1,1,1,1073742603,1073742604,783,784,787,788,80,81,82,83,84,85,86,87,495,501,502,503,504,505,506,507,444,445,1610613062,
3758096709,605,3221226140,1137,1138,1139,1140,1141,1142,1143,2147484202,2147484201,2147484200,2147484199,2147484198,1073742571,1073742572,751,752,819,756,112,113,114,115,116,117,118,119,495,533,534,535,536,537,538,539,476,477,1610613061,
3758096711,605,3221226108,1169,1170,1171,1172,1173,1174,1175,2147484234,2147484233,2147484232,2147484231,2147484230,779,780,783,784,784,756,144,145,146,147,148,149,150,151,495,565,566,567,568,569,570,571,508,509,1610613062,
3758096710,605,3221226076,1201,1202,1203,1204,1205,1206,1207,2147484266,2147484265,2147484264,2147484263,2147484262,811,812,815,816,816,788,176,177,178,179,180,181,182,183,495,597,598,599,600,601,602,603,540,541,1610613061,
3758096709,605,3221226044,1233,1234,1235,1236,1237,1238,1239,2147484298,2147484297,2147484296,2147484295,2147484294,843,1610613484,1610613516,1610613548,1610613580,820,208,209,210,211,212,213,214,215,495,629,630,631,632,633,634,635,572,573,1610613063,
3758096711,605,3221226012,1265,1266,1267,1268,1269,1270,1271,2147484330,2147484329,2147484328,2147484327,2147484326,875,880,881,882,883,884,240,241,242,243,244,245,246,247,495,661,662,663,664,665,666,667,604,605,1610613062,
3758096710,605,3221225980,257,258,259,260,261,262,263,257,258,259,56,57,58,59,60,61,62,267,268,269,270,271,272,273,274,275,276,277,278,279,280,281,282,283,636,637,1610613061,
3758096709,605,3221225948,289,290,291,292,293,294,295,289,290,291,88,89,90,91,92,93,94,299,300,301,302,303,304,305,306,307,308,309,310,311,312,313,314,315,668,669,1610613063,
3758096711,605,3221225916,550,551,552,553,554,326,327,321,322,323,120,121,122,123,124,125,126,331,332,333,1606,1607,1608,1609,1610,1606,1607,1608,1609,1610,344,345,346,347,700,701,1610613062,
3758096710,605,3221225884,582,583,584,585,586,1,917,918,919,1,152,153,154,155,156,157,158,1,1,1,1638,1639,1640,1641,1642,1638,1639,1640,1641,1642,1,917,918,919,732,733,1610613061,
3758096709,605,3221225852,614,615,616,617,618,1,949,950,951,1,184,185,186,187,188,189,190,1,287,288,1670,1671,1672,1673,1674,1670,1671,1672,1673,1674,1,949,950,951,764,765,1610613061,
3758096711,605,3221225820,646,647,648,649,650,1,981,982,983,1,216,217,218,219,220,221,222,1,319,320,1702,1703,1704,1705,1706,1702,1703,1704,1705,1706,1,981,982,983,796,797,1610613063,
3758096710,605,573,678,679,680,681,682,1,1013,1014,1015,1,248,249,250,251,252,253,254,1,1,1,1734,1735,1736,1737,1738,1734,1735,1736,1737,1738,1,1013,1014,1015,572,572,1610613062,
3758096709,605,605,900,901,902,903,904,905,906,907,908,909,910,911,912,913,914,915,916,897,898,899,900,901,902,903,904,905,906,907,908,909,910,911,912,913,572,573,1610613061,
3758096710,930,931,932,933,934,935,936,937,938,939,940,941,942,943,944,945,946,947,948,929,930,931,932,933,934,935,936,937,938,939,940,941,942,943,944,945,604,605,1610613062,
3758096709,962,963,964,965,966,967,968,969,970,971,972,973,974,975,976,977,978,979,980,961,962,963,964,965,966,967,968,969,970,971,972,973,974,975,976,977,978,979,1610613061,
993,994,995,996,997,998,999,1000,1001,1002,1003,1004,1005,1006,1007,1008,1009,1010,1011,1012,993,994,995,996,997,998,999,1000,1001,1002,1003,1004,1005,1006,1007,1008,1009,1010,1011,1012
</data>
 </layer>
</map>
